assets/img/braze_icons/luggage-03.svg

<svg fill="none" height="24" viewBox="0 0 24 24" width="24" xmlns="http://www.w3.org/2000/svg"><path clip-rule="evenodd" d="m11.8624 2.00005c-.7954-.00043-1.386-.00075-1.89767.13634-1.38037.36987-2.45856 1.44806-2.82843 2.82843-.08238.30744-.11514.64341-.12808 1.03518h-.24952c-.80496-.00001-1.46933-.00002-2.01052.04419-.5621.04593-1.0788.14449-1.56414.39179-.75265.38349-1.36457.99541-1.74806 1.74806-.24729.48533-.34586 1.00204-.39178 1.56414-.04422.54122-.044211 1.20552-.0442 2.01042v4.4827c-.000011.805-.00002 1.4693.0442 2.0105.04592.5621.14449 1.0788.39178 1.5642.38349.7526.99541 1.3645 1.74806 1.748.48534.2473 1.00204.3459 1.56414.3918.48245.0394.96722.0464 1.45182.0464.28005-.0001.42007-.0001.52702-.0546.09407-.0479.17055-.1244.21849-.2185.05449-.1069.05449-.2477.05449-.5291v-12.2c0-.55228.44772-1 1-1 .55229 0 1 .44772 1 1v12.2c0 .28 0 .42.0545.527.04793.0941.12442.1706.21851.2185.10695.0545.24696.0545.52699.0545h4.4c.28 0 .42 0 .527-.0545.0941-.0479.1706-.1244.2185-.2185.0545-.107.0545-.247.0545-.527v-1.2c0-.5523.4477-1 1-1s1 .4477 1 1v1.2c0 .2814 0 .4222.0545.5291.0479.0941.1244.1706.2185.2185.1069.0545.247.0545.527.0546.4846 0 .9694-.007 1.4518-.0464.5621-.0459 1.0788-.1445 1.5642-.3918.7526-.3835 1.3645-.9954 1.748-1.748.2473-.4854.3459-1.0021.3918-1.5642.0442-.5412.0442-1.2055.0442-2.0105v-4.4826c0-.805 0-1.4693-.0442-2.01052-.0459-.5621-.1445-1.07881-.3918-1.56414-.3835-.75265-.9954-1.36457-1.748-1.74806-.4854-.2473-1.0021-.34586-1.5642-.39179-.5412-.04421-1.2055-.0442-2.0105-.04419h-.2495c-.0129-.39177-.0457-.72774-.1281-1.03518-.3699-1.38037-1.4481-2.45856-2.8284-2.82843-.5117-.13709-1.1023-.13677-1.8977-.13634zm3.1277 3.99995c-.0091-.25751-.0264-.39877-.0582-.51754-.185-.69019-.7241-1.22928-1.4143-1.41422-.2222-.05955-.5232-.06814-1.5176-.06814-.9943 0-1.2954.00859-1.5176.06814-.69022.18494-1.22931.72403-1.41425 1.41422-.03182.11877-.04909.26003-.05828.51754zm-2.9901 8.3c0-.28 0-.42.0545-.527.0479-.0941.1244-.1706.2185-.2185.107-.0545.247-.0545.527-.0545h4.9c.28 0 .42 0 .527.0545.0941.0479.1706.1244.2185.2185.0545.107.0545.247.0545.527v2.4c0 .28 0 .42-.0545.527-.0479.0941-.1244.1706-.2185.2185-.107.0545-.247.0545-.527.0545h-4.9c-.28 0-.42 0-.527-.0545-.0941-.0479-.1706-.1244-.2185-.2185-.0545-.107-.0545-.247-.0545-.527zm4-6.3c.5523 0 1 .44772 1 1v2c0 .5523-.4477 1-1 1s-1-.4477-1-1v-2c0-.55228.4477-1 1-1z" fill="#801ed7" fill-rule="evenodd"/></svg>

<svg width="24" height="24" viewBox="0 0 24 24" fill="none" xmlns="http://www.w3.org/2000/svg">
<path fill-rule="evenodd" clip-rule="evenodd" d="M11.8624 2.00005C11.067 1.99962 10.4764 1.9993 9.96473 2.13639C8.58436 2.50626 7.50617 3.58445 7.1363 4.96482C7.05392 5.27226 7.02116 5.60823 7.00822 6H6.7587C5.95374 5.99999 5.28937 5.99998 4.74818 6.04419C4.18608 6.09012 3.66938 6.18868 3.18404 6.43598C2.43139 6.81947 1.81947 7.43139 1.43598 8.18404C1.18869 8.66937 1.09012 9.18608 1.0442 9.74818C0.99998 10.2894 0.999989 10.9537 1 11.7586V16.2413C0.999989 17.0463 0.99998 17.7106 1.0442 18.2518C1.09012 18.8139 1.18869 19.3306 1.43598 19.816C1.81947 20.5686 2.43139 21.1805 3.18404 21.564C3.66938 21.8113 4.18608 21.9099 4.74818 21.9558C5.23063 21.9952 5.7154 22.0022 6.2 22.0022C6.48005 22.0021 6.62007 22.0021 6.72702 21.9476C6.82109 21.8997 6.89757 21.8232 6.94551 21.7291C7 21.6222 7 21.4814 7 21.2L7 9C7 8.44772 7.44772 8 8 8C8.55229 8 9 8.44772 9 9L9 21.2C9 21.48 9 21.62 9.0545 21.727C9.10243 21.8211 9.17892 21.8976 9.27301 21.9455C9.37996 22 9.51997 22 9.8 22H14.2C14.48 22 14.62 22 14.727 21.9455C14.8211 21.8976 14.8976 21.8211 14.9455 21.727C15 21.62 15 21.48 15 21.2V20C15 19.4477 15.4477 19 16 19C16.5523 19 17 19.4477 17 20V21.2C17 21.4814 17 21.6222 17.0545 21.7291C17.1024 21.8232 17.1789 21.8997 17.273 21.9476C17.3799 22.0021 17.52 22.0021 17.8 22.0022C18.2846 22.0022 18.7694 21.9952 19.2518 21.9558C19.8139 21.9099 20.3306 21.8113 20.816 21.564C21.5686 21.1805 22.1805 20.5686 22.564 19.816C22.8113 19.3306 22.9099 18.8139 22.9558 18.2518C23 17.7106 23 17.0463 23 16.2413V11.7587C23 10.9537 23 10.2894 22.9558 9.74818C22.9099 9.18608 22.8113 8.66937 22.564 8.18404C22.1805 7.43139 21.5686 6.81947 20.816 6.43598C20.3306 6.18868 19.8139 6.09012 19.2518 6.04419C18.7106 5.99998 18.0463 5.99999 17.2413 6H16.9918C16.9789 5.60823 16.9461 5.27226 16.8637 4.96482C16.4938 3.58445 15.4156 2.50626 14.0353 2.13639C13.5236 1.9993 12.933 1.99962 12.1376 2.00005H11.8624ZM14.9901 6C14.981 5.74249 14.9637 5.60123 14.9319 5.48246C14.7469 4.79227 14.2078 4.25318 13.5176 4.06824C13.2954 4.00869 12.9944 4.0001 12 4.0001C11.0057 4.0001 10.7046 4.00869 10.4824 4.06824C9.79218 4.25318 9.25309 4.79227 9.06815 5.48246C9.03633 5.60123 9.01906 5.74249 9.00987 6H14.9901ZM12 14.3C12 14.02 12 13.88 12.0545 13.773C12.1024 13.6789 12.1789 13.6024 12.273 13.5545C12.38 13.5 12.52 13.5 12.8 13.5H17.7C17.98 13.5 18.12 13.5 18.227 13.5545C18.3211 13.6024 18.3976 13.6789 18.4455 13.773C18.5 13.88 18.5 14.02 18.5 14.3V16.7C18.5 16.98 18.5 17.12 18.4455 17.227C18.3976 17.3211 18.3211 17.3976 18.227 17.4455C18.12 17.5 17.98 17.5 17.7 17.5H12.8C12.52 17.5 12.38 17.5 12.273 17.4455C12.1789 17.3976 12.1024 17.3211 12.0545 17.227C12 17.12 12 16.98 12 16.7V14.3ZM16 8C16.5523 8 17 8.44772 17 9V11C17 11.5523 16.5523 12 16 12C15.4477 12 15 11.5523 15 11V9C15 8.44772 15.4477 8 16 8Z" fill="#801ED7"/>
</svg>
